X:1
T:The Banks of Fordie
M:6/8
L:1/8
K:C
 G| G2 B A2 G| AGA G2 e| dBG G3/2 A/2 G| B2 d d2 e| f2 e d2 e| d2 B A2 G/2G/2|\
 G2 e d2 e| GGG G2||
